X:575
T: ES LEUCHTET SCHON WIEDER
N: E0538A
O: Europa, Mitteleuropa, Deutschland, Pommern, Fiddichow, Brusenfelde
R: Liebes - Lied
M: 3/4
L: 1/8
K: C
GA | G2E2cd | e2G2
cd | c3BcA | A2G2
cd | c3BcA | AGE2
cG | GFD2AG | F2E2
cd | c3BcA | AGE2
cG | GFD2AG | F2E2

